img/ln.svg

<svg width="30" height="30" viewBox="0 0 30 30" fill="none" xmlns="http://www.w3.org/2000/svg">
<path d="M25.4699 0C27.9718 0 30 2.02822 30 4.53015V25.4699C30 27.9718 27.9718 30 25.4699 30H4.53015C2.02822 30 0 27.9718 0 25.4699V4.53015C0 2.02822 2.02822 0 4.53015 0H25.4699ZM9.5988 11.5444H5.0676V25.1783H9.5988V11.5444ZM20.7217 11.2243C18.3679 11.2243 17.2855 12.4914 16.6761 13.4164L16.638 13.474L16.6381 11.5441H12.1068C12.1222 11.875 12.1296 12.9466 12.1322 14.3537L12.133 14.9335C12.1331 15.0328 12.1331 15.1334 12.1332 15.235L12.1331 16.1774C12.1331 16.2847 12.133 16.3929 12.1329 16.5017L12.1322 17.1613C12.1319 17.3832 12.1316 17.6066 12.1312 17.8308L12.1299 18.5044C12.1237 21.4236 12.1109 24.2956 12.1076 25.0095L12.107 25.135C12.1069 25.1634 12.1068 25.1781 12.1068 25.1781L16.638 25.1783V17.5645C16.638 17.157 16.6674 16.7499 16.7871 16.4586C17.1147 15.6445 17.8602 14.8013 19.1119 14.8013C20.7516 14.8013 21.4075 16.0515 21.4075 17.8844V25.1783H25.9384V17.3607C25.9384 13.1729 23.703 11.2243 20.7217 11.2243ZM7.3638 4.97086C5.81385 4.97086 4.8003 5.98874 4.8003 7.32655C4.8003 8.63492 5.78359 9.68178 7.30425 9.68178H7.3337C8.9139 9.68178 9.89745 8.63484 9.89745 7.32655C9.868 5.98873 8.91396 4.97086 7.3638 4.97086Z" fill="#EBC317"/>
</svg>

<svg width="30" height="30" fill="none" xmlns="http://www.w3.org/2000/svg"><path d="M25.47 0A4.53 4.53 0 0 1 30 4.53v20.94A4.53 4.53 0 0 1 25.47 30H4.53A4.53 4.53 0 0 1 0 25.47V4.53A4.53 4.53 0 0 1 4.53 0h20.94zM9.599 11.544H5.068v13.634h4.53V11.544zm11.123-.32c-2.354 0-3.437 1.267-4.046 2.192l-.038.058v-1.93h-4.531c.015.331.023 1.403.025 2.81l.001.58V17.162l-.002.669-.001.673c-.006 2.92-.02 5.792-.022 6.505l-.001.126v.043h4.531v-7.614c0-.407.03-.814.15-1.105.327-.814 1.072-1.658 2.324-1.658 1.64 0 2.296 1.25 2.296 3.083v7.294h4.53v-7.817c0-4.188-2.235-6.137-5.216-6.137zM7.364 4.971C5.814 4.97 4.8 5.989 4.8 7.327c0 1.308.984 2.355 2.504 2.355h.03c1.58 0 2.563-1.047 2.563-2.355-.029-1.338-.983-2.356-2.533-2.356z" fill="#EBC317"/></svg>
